packages/ffe-icons/icons/open/500/md/weather_snowy.svg

<svg xmlns="http://www.w3.org/2000/svg" height="24" viewBox="0 -960 960 960" width="24"><path d="M260-191.869q-23.152 0-39.326-16.174T204.5-247.37q0-23.152 16.174-39.326T260-302.87q23.152 0 39.326 16.174T315.5-247.37q0 23.153-16.174 39.327T260-191.869Zm120 131q-23.152 0-39.326-16.174T324.5-116.37q0-23.152 16.174-39.326T380-171.869q23.152 0 39.326 16.174t16.174 39.326q0 23.152-16.174 39.326T380-60.87Zm120-131q-23.152 0-39.326-16.174T444.5-247.37q0-23.152 16.174-39.326T500-302.87q23.152 0 39.326 16.174T555.5-247.37q0 23.153-16.174 39.327T500-191.869Zm240 0q-23.152 0-39.326-16.174T684.5-247.37q0-23.152 16.174-39.326T740-302.87q23.152 0 39.326 16.174T795.5-247.37q0 23.153-16.174 39.327T740-191.869Zm-120 131q-23.152 0-39.326-16.174T564.5-116.37q0-23.152 16.174-39.326T620-171.869q23.152 0 39.326 16.174t16.174 39.326q0 23.152-16.174 39.326T620-60.87ZM300-358.087q-93.152 0-159.326-66.174Q74.5-490.435 74.5-583.587q0-84.435 55.478-147.75t137.435-75.272q32.957-57 89.413-89.739 56.457-32.739 123.165-32.739 90.966 0 158.542 57.5 67.576 57.5 83.011 143.978 69.717 7.435 116.837 59.631Q885.5-615.783 885.5-543.587q0 77.152-54.104 131.326Q777.292-358.087 700-358.087H300Zm0-91h400q39.69 0 67.095-27.389Q794.5-503.864 794.5-543.53t-27.405-67.111Q739.69-638.087 700-638.087h-65.5v-45.5q0-63.731-45.379-109.116-45.379-45.384-109.103-45.384-46.344 0-84.529 25.163-38.185 25.163-57.467 67.489l-11.367 27.348h-28.416q-54.827 1.92-93.783 40.806-38.956 38.886-38.956 93.614 0 55.689 39.389 95.134 39.39 39.446 95.111 39.446Zm180-94.5Z"/></svg>

<svg xmlns="http://www.w3.org/2000/svg" height="24" viewBox="0 -960 960 960" width="24"><path d="M260-191.87q-23.15 0-39.33-16.17-16.17-16.18-16.17-39.33t16.17-39.33q16.18-16.17 39.33-16.17t39.33 16.17q16.17 16.18 16.17 39.33t-16.17 39.33q-16.18 16.17-39.33 16.17Zm120 131q-23.15 0-39.33-16.17-16.17-16.18-16.17-39.33t16.17-39.33q16.18-16.17 39.33-16.17t39.33 16.17q16.17 16.18 16.17 39.33t-16.17 39.33Q403.15-60.87 380-60.87Zm120-131q-23.15 0-39.33-16.17-16.17-16.18-16.17-39.33t16.17-39.33q16.18-16.17 39.33-16.17t39.33 16.17q16.17 16.18 16.17 39.33t-16.17 39.33q-16.18 16.17-39.33 16.17Zm240 0q-23.15 0-39.33-16.17-16.17-16.18-16.17-39.33t16.17-39.33q16.18-16.17 39.33-16.17t39.33 16.17q16.17 16.18 16.17 39.33t-16.17 39.33q-16.18 16.17-39.33 16.17Zm-120 131q-23.15 0-39.33-16.17-16.17-16.18-16.17-39.33t16.17-39.33q16.18-16.17 39.33-16.17t39.33 16.17q16.17 16.18 16.17 39.33t-16.17 39.33Q643.15-60.87 620-60.87ZM300-358.09q-93.15 0-159.33-66.17Q74.5-490.43 74.5-583.59q0-84.43 55.48-147.75 55.48-63.31 137.43-75.27 32.96-57 89.42-89.74 56.45-32.74 123.16-32.74 90.97 0 158.54 57.5 67.58 57.5 83.01 143.98 69.72 7.44 116.84 59.63 47.12 52.2 47.12 124.39 0 77.16-54.1 131.33-54.11 54.17-131.4 54.17H300Zm0-91h400q39.69 0 67.09-27.39 27.41-27.38 27.41-67.05t-27.41-67.11q-27.4-27.45-67.09-27.45h-65.5v-45.5q0-63.73-45.38-109.11-45.38-45.39-109.1-45.39-46.35 0-84.53 25.17-38.19 25.16-57.47 67.49l-11.36 27.34h-28.42q-54.83 1.92-93.78 40.81-38.96 38.89-38.96 93.61 0 55.69 39.39 95.14 39.39 39.44 95.11 39.44Zm180-94.5Z"/></svg>
